contents/ui/assets/pause.svg

<svg width="238" height="238" viewBox="0 0 238 238" fill="none" xmlns="http://www.w3.org/2000/svg">
<path fill-rule="evenodd" clip-rule="evenodd" d="M238 119C238 184.722 184.722 238 119 238C53.2781 238 0 184.722 0 119C0 53.2781 53.2781 0 119 0C184.722 0 238 53.2781 238 119ZM81 83C81 80.7909 82.7909 79 85 79H107C109.209 79 111 80.7909 111 83V155C111 157.209 109.209 159 107 159H85C82.7909 159 81 157.209 81 155V83ZM132 79C129.791 79 128 80.7909 128 83V155C128 157.209 129.791 159 132 159H154C156.209 159 158 157.209 158 155V83C158 80.7909 156.209 79 154 79H132Z" fill="#D9D9D9"/>
</svg>

<?xml version="1.0" encoding="UTF-8"?>
<svg width="238" height="238" fill="none" version="1.1" viewBox="0 0 238 238" xmlns="http://www.w3.org/2000/svg">
 <path d="m238 119c0 65.722-53.278 119-119 119-65.722 0-119-53.278-119-119 0-65.722 53.278-119 119-119 65.722 0 119 53.278 119 119zm-157-36c0-2.2091 1.7909-4 4-4h22c2.209 0 4 1.7909 4 4v72c0 2.209-1.791 4-4 4h-22c-2.2091 0-4-1.791-4-4v-72zm51-4c-2.209 0-4 1.7909-4 4v72c0 2.209 1.791 4 4 4h22c2.209 0 4-1.791 4-4v-72c0-2.2091-1.791-4-4-4h-22z" clip-rule="evenodd" fill="#D9D9D9" fill-rule="evenodd"/>
</svg>
